icon/ir/trademark.svg

<svg stroke-width="1.5" viewBox="0 0 24 24" fill="none" xmlns="http://www.w3.org/2000/svg" height="1em" width="1em">
  <path d="M9.5 15.5V12.7M12.3571 12.7C13.0714 12.7 14.5 12.7 14.5 10.6C14.5 8.5 13.0714 8.5 12.3571 8.5L9.5 8.5V12.7M12.3571 12.7C11.2143 12.7 9.97619 12.7 9.5 12.7M12.3571 12.7L14.5 15.5" stroke="currentColor" stroke-linecap="round" stroke-linejoin="round"/>
  <path d="M12 22C17.5228 22 22 17.5228 22 12C22 6.47715 17.5228 2 12 2C6.47715 2 2 6.47715 2 12C2 17.5228 6.47715 22 12 22Z" stroke="currentColor" stroke-linecap="round" stroke-linejoin="round"/>
</svg>

<svg width="24" height="24" stroke-width="1.5" fill="none" xmlns="http://www.w3.org/2000/svg"><path d="M9.5 15.5v-2.8m2.857 0c.714 0 2.143 0 2.143-2.1s-1.429-2.1-2.143-2.1H9.5v4.2m2.857 0H9.5m2.857 0 2.143 2.8" stroke="currentColor" stroke-linecap="round" stroke-linejoin="round"/><path d="M12 22c5.523 0 10-4.477 10-10S17.523 2 12 2 2 6.477 2 12s4.477 10 10 10Z" stroke="currentColor" stroke-linecap="round" stroke-linejoin="round"/></svg>
